Hatter-kde/actions/22/im-ban-kick-user.svg

<svg xmlns="http://www.w3.org/2000/svg" viewBox="0 0 22 22">
    <defs id="defs3051">
        <style type="text/css" id="current-color-scheme">
            .ColorScheme-NegativeText {
                color:#da4453;
            }
        </style>
    </defs>
    <g style="fill:currentColor;fill-opacity:1;stroke:none" class="ColorScheme-NegativeText">
        <path d="M7.837891 7.130859A5 5 0 0 0 7.130859 7.837891L10.292969 11 7.130859 14.162109A5 5 0 0 0 7.837891 14.869141L11 11.707031 14.162109 14.869141A5 5 0 0 0 14.869141 14.162109L11.707031 11 14.869141 7.837891A5 5 0 0 0 14.162109 7.130859L11 10.292969 7.837891 7.130859"/>
        <path d="M11 3A8 7.99997 0 0 0 3 11 8 7.99997 0 0 0 11 19 8 7.99997 0 0 0 19 11 8 7.99997 0 0 0 11 3M11 4A7 6.999974 0 0 1 18 11 7 6.999974 0 0 1 11 18 7 6.999974 0 0 1 4 11 7 6.999974 0 0 1 11 4"/>
    </g>
</svg>

<?xml version="1.0" encoding="UTF-8"?>
<svg viewBox="0 0 22 22" xmlns="http://www.w3.org/2000/svg">
 <defs id="defs3051">
  <style id="current-color-scheme" type="text/css">.ColorScheme-NegativeText {
                color:#da4453;
            }</style>
 </defs>
 <g class="ColorScheme-NegativeText" fill="currentColor">
  <path d="m7.8379 7.1309a5 5 0 0 0-0.70703 0.70703l3.1621 3.1621-3.1621 3.1621a5 5 0 0 0 0.70703 0.70703l3.1621-3.1621 3.1621 3.1621a5 5 0 0 0 0.70703-0.70703l-3.1621-3.1621 3.1621-3.1621a5 5 0 0 0-0.70703-0.70703l-3.1621 3.1621-3.1621-3.1621"/>
  <path d="m11 3a8 8 0 0 0-8 8 8 8 0 0 0 8 8 8 8 0 0 0 8-8 8 8 0 0 0-8-8m0 1a7 7 0 0 1 7 7 7 7 0 0 1-7 7 7 7 0 0 1-7-7 7 7 0 0 1 7-7"/>
 </g>
</svg>
